package/converter/svg/duotone/socks.svg

<svg xmlns="http://www.w3.org/2000/svg" viewBox="0 0 512 512"><!-- Font Awesome Pro 6.0.0-alpha2 by @fontawesome - https://fontawesome.com License - https://fontawesome.com/license (Commercial License) --><defs><style>.fa-secondary{opacity:.4}</style></defs><path d="M127.996 127.998H287.998V95.998H127.996V127.998ZM127.996 271.996L41.345 336.596C1.996 366.146 -12.526 420.994 12.125 463.645C29.445 493.613 61.453 512.049 96.066 511.994C116.814 512.004 137.004 505.266 153.586 492.795L175.447 476.404C145.597 420.994 161.906 350.545 214.648 310.996L287.998 255.996V159.998H127.996V271.996ZM159.996 0C142.324 0 127.996 14.326 127.996 32V64H287.998V32C288.062 21.361 290.814 10.91 295.998 1.619C293.388 0.92 290.838 0 287.998 0H159.996ZM319.998 64V95.998H512V64H319.998ZM319.998 159.998H512V127.998H319.998V159.998Z" class="fa-secondary"/><path d="M287.998 64H128V95.998H287.998V64ZM287.998 127.998H128V159.998H287.998V127.998ZM479.994 0H351.996C334.324 0 319.996 14.326 319.996 32V64H511.994V32C511.994 14.326 497.668 0 479.994 0ZM319.996 127.998H511.994V95.998H319.996V127.998ZM319.996 271.996L233.867 336.596C194.459 366.146 179.998 420.994 204.648 463.645C230.971 509.668 289.617 525.639 335.641 499.318C335.643 499.316 335.645 499.314 335.646 499.314C342.941 495.131 335.967 499.996 460.795 406.375C493.02 382.207 511.988 344.277 511.994 303.996V159.998H319.996V271.996Z" class="fa-primary"/></svg>

<svg xmlns="http://www.w3.org/2000/svg" viewBox="0 0 512 512"><!--! Font Awesome Pro 6.6.0 by @fontawesome - https://fontawesome.com License - https://fontawesome.com/license (Commercial License) Copyright 2024 Fonticons, Inc. --><defs><style>.fa-secondary{opacity:.4}</style></defs><path class="fa-secondary" d="M0 416c0 53 43 96 96 96c20.8 0 41-6.7 57.6-19.2l21.6-16.2c-9.7-18-15.2-38.7-15.2-60.6c0-40.3 19-78.2 51.2-102.4l64-48c8.1-6 12.8-15.5 12.8-25.6l0-80-160 0 0 80c0 20.1-9.5 39.1-25.6 51.2l-64 48C14.2 357.3 0 385.8 0 416zM128 48l0 16 160 0 0-16c0-14.5 3.9-28.2 10.7-39.9C291 3 281.9 0 272 0L176 0c-26.5 0-48 21.5-48 48zm0 48l0 32 160 0 0-32L128 96zM320 64l0 32 192 0 0-32L320 64zm0 64l0 32 192 0 0-32-192 0z"/><path class="fa-primary" d="M320 128l192 0 0-32L320 96l0 32zm0 32l0 80c0 20.1-9.5 39.1-25.6 51.2l-64 48C206.2 357.3 192 385.8 192 416c0 53 43 96 96 96c20.8 0 41-6.7 57.6-19.2l115.2-86.4C493 382.2 512 344.3 512 304l0-144-192 0zM512 64l0-16c0-26.5-21.5-48-48-48L368 0c-26.5 0-48 21.5-48 48l0 16 192 0zM128 64l0 32 160 0 0-32L128 64zm160 64l-160 0 0 32 160 0 0-32z"/></svg>
